X:884
T:Paddy Kelly's
T:Daisy Field, The
R:reel
C:Paddy Kelly (1906-?), Aughrim, Co. Galway
Z:id:hn-reel-884
M:C|
L:1/8
K:Gmix
dGBG DGBd | cFAF cFAc | d2BG DGGA | BdcA GABc |
dGBG dGBd | cFAF cFAc | d2BG DG~G2 | (3Bcd cA G3B :|
|: dgg^f g2de | =fdcA FGAc | dgg^f ~g3f | de^fg aggf |
dgg^f g2ag | =fdcA FGAc | d2BG DGGA | BdcA G3B :|
P:variations
|: dG~G2 dGBd | cF~F2 cFAc | dG~G2 DEGA | BdcA GABc |
dG~G2 dGBd | cF~F2 cFAc | dG~G2 DEGA | (3Bcd cA G3B :|
|: dgg^f g2ag | =fdcA FGAc | dgg^f ~g3f | de^fg aggf |
dgg^f g2ag | =fdcA FGAc | dG~G2 DEGA | BdcA G3B :|
 

